X: 39488
T: Tatter Jack Walsh
R: jig
M: 6/8
K: Dmixolydian
|:GA|BAB GBg|fde =f2d|g3 gdB|cBc Adc|
BAB GBg|fde =f2d|gfd cBc|dGF G3:|
|:D|GBd dBG|GBd d2B|cAB cAG|FGA cdc|
BAB GBg|fde =f2d|gfd cBc|dGF G3:|

